!!!!SEGMENT: pl-cz--d-ii-43--002_elsner-jozef--msza-pasterska-gloria.krn
!!!cenid: 18xx:198
!!!COM: Elsner, Józef
!!!COM-rismid: pe30000957
!!!CDT: 1769/06/01-1854/04/18
!!!CNT: Polish
!!!OPR: Msza pasterska
!!!OTL: Gloria
!!!OMV: 002
!!!OMD: GLORIA
!!!OMD: Allo moderato.
!!!PDT: 1843
!!!AGN: Sacred; Mass
!!!SMS-siglum: PL-CZ
!!!SMS-shelfmark: D II-43
!!!SMS-shelfwork: 001-002 M
!!!NIFC-rismid:
!!!URL-scan: http://repozytorium.nifc.pl/skany/pl-cz-nut--dii-43
!!!ONB-nifc: UWAGA: części Mszy: Kyrie, Gloria, Graduale, Credo, Offertorium, Sanctus, Benedictus, Agnus
**kern	**kern	**dynam	**kern	**dynam	**kern	**text	**dynam	**kern	**text	**dynam	**kern	**text	**dynam	**kern	**text	**dynam
*part6	*part6	*part6	*part5	*part5	*part4	*part4	*part4	*part3	*part3	*part3	*part2	*part2	*part2	*part1	*part1	*part1
*staff7	*staff6	*	*staff5	*	*staff4	*staff4	*	*staff3	*staff3	*	*staff2	*staff2	*	*staff1	*staff1	*
*Iorgan	*Iempty	*	*Icello	*	*Ibass	*	*	*Itenor	*	*	*Isoprn	*	*	*Isoprn	*	*
*I"Organo.	*	*	*I"Violoncello.	*	*I"Basso.	*	*	*I"Tenore.	*	*	*I"Soprano 2o	*	*	*I"Soprano 1o	*	*
*I'Org	*	*	*I'Vc	*	*I'B	*	*	*I'T.	*	*	*I'S II	*	*	*I'S I	*	*
*clefF4	*clefG2	*	*clefF4	*	*clefF4	*	*	*clefC4	*	*	*clefG2	*	*	*clefG2	*	*
*k[f#c#g#]	*k[f#c#g#]	*	*k[f#c#g#]	*	*k[f#c#g#]	*	*	*k[f#c#g#]	*	*	*k[f#c#g#]	*	*	*k[f#c#g#]	*	*
*A:	*A:	*	*A:	*	*A:	*	*	*A:	*	*	*A:	*	*	*A:	*	*
*M3/4	*M3/4	*	*M3/4	*	*M3/4	*	*	*M3/4	*	*	*M3/4	*	*	*M3/4	*	*
=1	=1	=1	=1	=1	=1	=1	=1	=1	=1	=1	=1	=1	=1	=1	=1	=1
!	!	!LO:DY:rj	!LO:TX:a:Bi:t=Allo	!LO:DY:rj	!	!	!	!	!	!	!	!	!	!	!	!
16A\LL	16aa\LL	ff	16A\LL	f	2.r	.	.	2.r	.	.	2.r	.	.	2.r	.	.
16G#\	16gg#\	.	16G#\	.	.	.	.	.	.	.	.	.	.	.	.	.
16F#\	16ff#\	.	16F#\	.	.	.	.	.	.	.	.	.	.	.	.	.
16E\JJ	16ee\JJ	.	16E\JJ	.	.	.	.	.	.	.	.	.	.	.	.	.
16F#\LL	16ff#\LL	.	16F#\LL	.	.	.	.	.	.	.	.	.	.	.	.	.
16E\	16ee\	.	16E\	.	.	.	.	.	.	.	.	.	.	.	.	.
16D\	16dd\	.	16D\	.	.	.	.	.	.	.	.	.	.	.	.	.
16C#\JJ	16cc#\JJ	.	16C#\JJ	.	.	.	.	.	.	.	.	.	.	.	.	.
16D\LL	16dd\LL	.	16D\LL	.	.	.	.	.	.	.	.	.	.	.	.	.
16C#\	16cc#\	.	16C#\	.	.	.	.	.	.	.	.	.	.	.	.	.
16BB\	16b\	.	16BB\	.	.	.	.	.	.	.	.	.	.	.	.	.
16E\JJ	16ee\JJ	.	16E\JJ	.	.	.	.	.	.	.	.	.	.	.	.	.
=2	=2	=2	=2	=2	=2	=2	=2	=2	=2	=2	=2	=2	=2	=2	=2	=2
4AA/	16cc#\LL	.	8AA\L	.	2A\	Chwa-	.	2e\	Chwa-	.	2a/	Chwa-	.	2cc#\	Chwa-	.
.	16b\	.	.	.	.	.	.	.	.	.	.	.	.	.	.	.
.	16a\	.	8C#\	.	.	.	.	.	.	.	.	.	.	.	.	.
.	16b\JJ	.	.	.	.	.	.	.	.	.	.	.	.	.	.	.
2A\ 2c# 2e	16cc#\LL	.	8E\	.	.	.	.	.	.	.	.	.	.	.	.	.
.	16b\	.	.	.	.	.	.	.	.	.	.	.	.	.	.	.
.	16cc#\	.	8C#\	.	.	.	.	.	.	.	.	.	.	.	.	.
.	16dd\JJ	.	.	.	.	.	.	.	.	.	.	.	.	.	.	.
.	16ee\LL	.	8AA\	.	4A\	-łę	.	4c#\	-łę	.	4a/	-łę	.	4ee\	-łę	.
.	16a\	.	.	.	.	.	.	.	.	.	.	.	.	.	.	.
.	16cc#\	.	8A\J	.	.	.	.	.	.	.	.	.	.	.	.	.
.	16ee\JJ	.	.	.	.	.	.	.	.	.	.	.	.	.	.	.
=3	=3	=3	=3	=3	=3	=3	=3	=3	=3	=3	=3	=3	=3	=3	=3	=3
4D\	16ff#\LL	.	8D\L	.	2D\	Pa-	.	2d\	Pa-	.	2a/	Pa-	.	2ff#\	Pa-	.
.	16ee\	.	.	.	.	.	.	.	.	.	.	.	.	.	.	.
.	16dd\	.	8F#\	.	.	.	.	.	.	.	.	.	.	.	.	.
.	16cc#\JJ	.	.	.	.	.	.	.	.	.	.	.	.	.	.	.
2A\ 2d 2f#	16dd\LL	.	8A\	.	.	.	.	.	.	.	.	.	.	.	.	.
.	16ee\	.	.	.	.	.	.	.	.	.	.	.	.	.	.	.
.	16ff#\	.	8F#\	.	.	.	.	.	.	.	.	.	.	.	.	.
.	16gg#\JJ	.	.	.	.	.	.	.	.	.	.	.	.	.	.	.
.	16aa\LL	.	8D\	.	4D\	-na	.	4d\	-na	.	4a/	-na	.	4ff#\	-na	.
.	16gg#\	.	.	.	.	.	.	.	.	.	.	.	.	.	.	.
.	16aa\	.	8d\J	.	.	.	.	.	.	.	.	.	.	.	.	.
.	16ff#\JJ	.	.	.	.	.	.	.	.	.	.	.	.	.	.	.
=4	=4	=4	=4	=4	=4	=4	=4	=4	=4	=4	=4	=4	=4	=4	=4	=4
[2E\ 2A 2c#	16ee\LL	.	8E\L	.	2E\	wdzięcz-	.	2c#\	wdzięcz-	.	4a/	wdzięcz-	.	2ee\	wdzięcz-	.
.	16ff#\	.	.	.	.	.	.	.	.	.	.	.	.	.	.	.
.	16ee\	.	8c#\	.	.	.	.	.	.	.	.	.	.	.	.	.
.	16cc#\JJ	.	.	.	.	.	.	.	.	.	.	.	.	.	.	.
.	16ee\LL	.	8A\	.	.	.	.	.	.	.	4e/	.	.	.	.	.
.	16ff#\	.	.	.	.	.	.	.	.	.	.	.	.	.	.	.
.	16ee\	.	8e\	.	.	.	.	.	.	.	.	.	.	.	.	.
.	16cc#\JJ	.	.	.	.	.	.	.	.	.	.	.	.	.	.	.
4E]\ 4G# 4B 4d	16dd\LL	.	8G#\	.	4E\	-nym	.	4B\	-nym	.	4g#/	-nym	.	4dd\	-nym	.
.	16ee\	.	.	.	.	.	.	.	.	.	.	.	.	.	.	.
.	16dd\	.	8e\J	.	.	.	.	.	.	.	.	.	.	.	.	.
.	16b\JJ	.	.	.	.	.	.	.	.	.	.	.	.	.	.	.
=5	=5	=5	=5	=5	=5	=5	=5	=5	=5	=5	=5	=5	=5	=5	=5	=5
!	!	!LO:HP:a	!	!	!	!	!	!	!	!	!	!	!	!	!	!
4E\ 4A 4c#	16cc#\LL	>	8A\L	.	8AA/L	pie-	.	4e\	pie-	.	4a/	pie-	.	4cc#\	pie-	.
.	16dd\	.	.	.	.	.	.	.	.	.	.	.	.	.	.	.
.	16cc#\	.	8c#\J	.	8C#/J	.	.	.	.	.	.	.	.	.	.	.
.	16a\JJ	.	.	.	.	.	.	.	.	.	.	.	.	.	.	.
4E\ 4G# 4B	16b\LL	.	4e\	.	4E/	-niem	.	4e\	-niem	.	4g#/	-niem	.	4b\	-niem	.
.	16cc#\	.	.	.	.	.	.	.	.	.	.	.	.	.	.	.
.	16b\	.	.	.	.	.	.	.	.	.	.	.	.	.	.	.
.	16g#\JJ	.	.	.	.	.	.	.	.	.	.	.	.	.	.	.
4r	16e/LL	]	4r	.	4r	.	.	4r	.	.	4r	.	.	4r	.	.
.	16g#/	.	.	.	.	.	.	.	.	.	.	.	.	.	.	.
.	16b/	.	.	.	.	.	.	.	.	.	.	.	.	.	.	.
.	16dd/JJ	.	.	.	.	.	.	.	.	.	.	.	.	.	.	.
=6	=6	=6	=6	=6	=6	=6	=6	=6	=6	=6	=6	=6	=6	=6	=6	=6
!!LO:PB:g=original
!	!	!LO:DY:b:rj	!	!	!	!	!LO:DY:b:rj	!	!	!LO:DY:b:rj	!	!	!LO:DY:b:rj	!	!	!LO:DY:b:rj
8A\	8r	p	2.r	.	4A\	Lu-	p	4c#\	Lu-	p	4e/	Lu-	p	4cc#\	Lu-	p
8r	8e/ 8a 8cc#	.	.	.	.	.	.	.	.	.	.	.	.	.	.	.
8G#\	8r	.	.	.	4G#\	-dy	.	4e\	-dy	.	4e/	-dy	.	4b\	-dy	.
8r	8e/ 8b	.	.	.	.	.	.	.	.	.	.	.	.	.	.	.
8A\	8r	.	.	.	4A\	A-	.	4e\	A-	.	4a/	A-	.	4cc#\	A-	.
8r	8e/ 8a 8cc#	.	.	.	.	.	.	.	.	.	.	.	.	.	.	.
=7	=7	=7	=7	=7	=7	=7	=7	=7	=7	=7	=7	=7	=7	=7	=7	=7
8F#\	8r	.	4r	.	8F#\L	-nio-	.	4d\	-nio-	.	4a/	-nio-	.	4dd\	-nio-	.
8r	8d/ 8a 8dd	.	.	.	8E\J	.	.	.	.	.	.	.	.	.	.	.
8D\	8r	.	4r	.	4D\	-ły	.	4d\	-ły	.	8a/L	-ły	.	4f#/	-ły	.
8r	8d/ 8f#	.	.	.	.	.	.	.	.	.	8g#/J	.	.	.	.	.
8D\	8r	.	4D\	.	4D\	roz-	.	8A\L	roz-	.	4f#/	roz-	.	8cc#\L	roz-	.
8r	8d/ 8f# 8b	.	.	.	.	.	.	8B\J	.	.	.	.	.	8b\J	.	.
=8	=8	=8	=8	=8	=8	=8	=8	=8	=8	=8	=8	=8	=8	=8	=8	=8
2E\	4r	.	2E\	.	(2E\	-nie-	.	(2c#\	-nie-	.	(2e/	-nie-	.	(2a/	-nie-	.
.	4c#/ 4e 4a	.	.	.	.	.	.	.	.	.	.	.	.	.	.	.
4D\	4f#/ 4b	.	4D\	.	4D\)	.	.	4F#/)	.	.	4f#/)	.	.	4b/)	.	.
=9	=9	=9	=9	=9	=9	=9	=9	=9	=9	=9	=9	=9	=9	=9	=9	=9
*	*^	*^	*	*	*	*	*	*	*	*	*	*	*	*	*	*
!	!	!	!LO:HP:a	!	!	!	!	!	!	!	!	!	!	!	!	!	!	!
2C#/	2g#/ 2cc#	2e#X\	<	<	2C#/	.	2C#/	-sćie	.	2G#/	-sćie	.	2e#X/	-sćie	.	2cc#\	-sćie	.
4BB/	16g#/LL 16dd	4en\	[	.	4BB/	.	4r	.	.	4r	.	.	4r	.	.	4r	.	.
.	16cc#/	.	.	.	.	.	.	.	.	.	.	.	.	.	.	.	.	.
.	16b/	.	.	[	.	.	.	.	.	.	.	.	.	.	.	.	.	.
.	16ee/JJ	.	.	.	.	.	.	.	.	.	.	.	.	.	.	.	.	.
*	*	*	*v	*v	*	*	*	*	*	*	*	*	*	*	*	*	*	*
*	*v	*v	*	*	*	*	*	*	*	*	*	*	*	*	*	*	*
=10	=10	=10	=10	=10	=10	=10	=10	=10	=10	=10	=10	=10	=10	=10	=10	=10
!	!	!LO:DY:rj	!	!	!	!	!	!	!	!	!	!	!	!	!	!
4AA/	16cc#\LL	f	8AA\L	.	2A\	O-	.	2e\	O-	.	2a/	O-	.	2cc#\	O-	.
.	16b\	.	.	.	.	.	.	.	.	.	.	.	.	.	.	.
.	16a\	.	8C#\	.	.	.	.	.	.	.	.	.	.	.	.	.
.	16b\JJ	.	.	.	.	.	.	.	.	.	.	.	.	.	.	.
2A\ 2c# 2e	16cc#\LL	.	8E\	.	.	.	.	.	.	.	.	.	.	.	.	.
.	16b\	.	.	.	.	.	.	.	.	.	.	.	.	.	.	.
.	16cc#\	.	8C#\	.	.	.	.	.	.	.	.	.	.	.	.	.
.	16dd\JJ	.	.	.	.	.	.	.	.	.	.	.	.	.	.	.
.	16ee\LL	.	8AA\	.	4A\	-ży-	.	4c#\	-ży-	.	4a/	-ży-	.	4ee\	-ży-	.
.	16a\	.	.	.	.	.	.	.	.	.	.	.	.	.	.	.
.	16cc#\	.	8A\J	.	.	.	.	.	.	.	.	.	.	.	.	.
.	16ee\JJ	.	.	.	.	.	.	.	.	.	.	.	.	.	.	.
=11	=11	=11	=11	=11	=11	=11	=11	=11	=11	=11	=11	=11	=11	=11	=11	=11
4D\	16ff#\LL	.	8D\L	.	2D/	-wie-	.	2d\	-wie-	.	2a/	-wie-	.	2ff#\	-wie-	.
.	16ee\	.	.	.	.	.	.	.	.	.	.	.	.	.	.	.
.	16dd\	.	8F#\	.	.	.	.	.	.	.	.	.	.	.	.	.
.	16cc#\JJ	.	.	.	.	.	.	.	.	.	.	.	.	.	.	.
2A\ 2d 2f#	16dd\LL	.	8A\	.	.	.	.	.	.	.	.	.	.	.	.	.
.	16ee\	.	.	.	.	.	.	.	.	.	.	.	.	.	.	.
.	16ff#\	.	8F#\	.	.	.	.	.	.	.	.	.	.	.	.	.
.	16gg#\JJ	.	.	.	.	.	.	.	.	.	.	.	.	.	.	.
.	16aa\LL	.	8D\	.	4D/	-ni	.	4d\	-ni	.	4a/	-ni	.	4ff#\	-ni	.
.	16gg#\	.	.	.	.	.	.	.	.	.	.	.	.	.	.	.
.	16aa\	.	8d\J	.	.	.	.	.	.	.	.	.	.	.	.	.
.	16ff#\JJ	.	.	.	.	.	.	.	.	.	.	.	.	.	.	.
=12	=12	=12	=12	=12	=12	=12	=12	=12	=12	=12	=12	=12	=12	=12	=12	=12
2E\ 2A 2c#	16ee\LL	.	8E\L	.	2E\	Je-	.	2c#\	Je-	.	(4a/	Je-	.	2ee\	Je-	.
.	16ff#\	.	.	.	.	.	.	.	.	.	.	.	.	.	.	.
.	16ee\	.	8c#\	.	.	.	.	.	.	.	.	.	.	.	.	.
.	16cc#\JJ	.	.	.	.	.	.	.	.	.	.	.	.	.	.	.
.	16ee\LL	.	8A\	.	.	.	.	.	.	.	4e/)	.	.	.	.	.
.	16ff#\	.	.	.	.	.	.	.	.	.	.	.	.	.	.	.
.	16ee\	.	8e\	.	.	.	.	.	.	.	.	.	.	.	.	.
.	16cc#\JJ	.	.	.	.	.	.	.	.	.	.	.	.	.	.	.
4E\ 4G# 4B 4d	16dd\LL	.	8G#\	.	4E\	-go	.	4B\	-go	.	4g#/	-go	.	4dd\	-go	.
.	16ee\	.	.	.	.	.	.	.	.	.	.	.	.	.	.	.
.	16dd\	.	8e\J	.	.	.	.	.	.	.	.	.	.	.	.	.
.	16b\JJ	.	.	.	.	.	.	.	.	.	.	.	.	.	.	.
=13	=13	=13	=13	=13	=13	=13	=13	=13	=13	=13	=13	=13	=13	=13	=13	=13
!!LO:LB:g=original
!	!	!LO:HP:a	!	!	!	!	!	!	!	!	!	!	!	!	!	!
4E\ 4A 4c#	16cc#\LL	>	8A\L	.	8AA/L	tchnie-	.	4e\	tchnie-	.	4a/	tchnie-	.	4cc#\	tchnie-	.
.	16dd\	.	.	.	.	.	.	.	.	.	.	.	.	.	.	.
.	16cc#\	.	8c#\J	.	8C#/J	.	.	.	.	.	.	.	.	.	.	.
.	16a\JJ	.	.	.	.	.	.	.	.	.	.	.	.	.	.	.
4E\ 4G# 4B	16b\LL	.	4e\	.	4E/	-niem	.	4e\	-niem	.	4g#/	-niem	.	4b\	-niem	.
.	16cc#\	.	.	.	.	.	.	.	.	.	.	.	.	.	.	.
.	16b\	.	.	.	.	.	.	.	.	.	.	.	.	.	.	.
.	16g#\JJ	.	.	.	.	.	.	.	.	.	.	.	.	.	.	.
4r	16e\LL	.	4r	.	4r	.	.	4r	.	.	4r	.	.	4r	.	.
.	16g#\	.	.	.	.	.	.	.	.	.	.	.	.	.	.	.
.	16b\	.	.	.	.	.	.	.	.	.	.	.	.	.	.	.
.	16dd\JJ	]	.	.	.	.	.	.	.	.	.	.	.	.	.	.
=14	=14	=14	=14	=14	=14	=14	=14	=14	=14	=14	=14	=14	=14	=14	=14	=14
8A\	8r	.	4r	.	4A\	w nim	.	4c#\	w nim	.	4a/	w nim	.	4cc#\	w nim	.
8r	8e/ 8cc#	.	.	.	.	.	.	.	.	.	.	.	.	.	.	.
8G#\	8r	.	4r	.	4G#\	i	.	4e\	i	.	4e/	i	.	4b\	i	.
8r	8e/ 8b	.	.	.	.	.	.	.	.	.	.	.	.	.	.	.
8A\	8r	.	4A\	.	4A\	dla	.	4A\	dla	.	4e/	dla	.	4cc#\	dla	.
8r	8a\ 8cc#	.	.	.	.	.	.	.	.	.	.	.	.	.	.	.
=15	=15	=15	=15	=15	=15	=15	=15	=15	=15	=15	=15	=15	=15	=15	=15	=15
8F#\	8r	.	4F#\	.	4F#\	nie-	.	4A\	nie-	.	4a/	nie-	.	4dd#X\	nie-	.
8r	8a\ 8dd#X	.	.	.	.	.	.	.	.	.	.	.	.	.	.	.
8E\	8r	.	4E\	.	4E\	-go	.	4B\	-go	.	4g#/	-go	.	4ee\	-go	.
8r	8g#\ 8b 8ee	.	.	.	.	.	.	.	.	.	.	.	.	.	.	.
8A\	8r	.	8AA\L	.	4AA/	ies-	.	4e\	ies-	.	4a/	ies-	.	4cc#\	ies-	.
8r	8e\ 8a 8cc#	.	8c#\J	.	.	.	.	.	.	.	.	.	.	.	.	.
=16	=16	=16	=16	=16	=16	=16	=16	=16	=16	=16	=16	=16	=16	=16	=16	=16
2.B\	4e\ 4g# 4b	.	8B\L	.	2.BB/	-te-	.	(4e\	-te-	.	(2g#/	-te-	.	(2b\	-te-	.
.	.	.	8G#\	.	.	.	.	.	.	.	.	.	.	.	.	.
.	4b\ 4ee 4gg#	.	8E\	.	.	.	.	4B\	.	.	.	.	.	.	.	.
.	.	.	8G#\J	.	.	.	.	.	.	.	.	.	.	.	.	.
!	!	!	!LO:TX:a:t=P:problem:mixed beam	!	!	!	!	!	!	!	!	!	!	!	!	!
.	4a\ 4b 4dd#X 4ff#	.	8B\L	.	.	.	.	4d#X\)	.	.	4f#/)	.	.	4a\)	.	.
.	.	.	8BB/J	.	.	.	.	.	.	.	.	.	.	.	.	.
=17	=17	=17	=17	=17	=17	=17	=17	=17	=17	=17	=17	=17	=17	=17	=17	=17
2E\	(8g#\L 8b 8ee	.	2E\	.	2E\	-śćie	.	2e\	-śćie	.	2e/	-śćie	.	2g#/	-śćie	.
.	8b\	.	.	.	.	.	.	.	.	.	.	.	.	.	.	.
.	8gg#\	.	.	.	.	.	.	.	.	.	.	.	.	.	.	.
.	8ee\	.	.	.	.	.	.	.	.	.	.	.	.	.	.	.
4r	8bb\	.	4r	.	4r	.	.	4r	.	.	4r	.	.	4r	.	.
.	8gg#\J)	.	.	.	.	.	.	.	.	.	.	.	.	.	.	.
=18	=18	=18	=18	=18	=18	=18	=18	=18	=18	=18	=18	=18	=18	=18	=18	=18
*^	*	*	*	*	*	*	*	*	*	*	*	*	*	*	*	*
!	!	!LO:TX:a:Bi:t=piano&colon; votta voce	!	!LO:TX:a:Bi:t=pian&colon; votta voce	!	!	!	!	!	!	!	!	!	!	!LO:TX:a:Bi:t=pian&colon; sottavoce	!	!
4ryy	2D#X\	8ff#\L 8aa	.	(4.D#X\	.	2D#X\	Przed	.	2B\	Przed	.	2f#/	Przed	.	2a/	Przed	.
.	.	8b\J	.	.	.	.	.	.	.	.	.	.	.	.	.	.	.
4F#/	.	4.ff#\	.	.	.	.	.	.	.	.	.	.	.	.	.	.	.
.	.	.	.	8F#\L	.	.	.	.	.	.	.	.	.	.	.	.	.
4B/	4ryy	.	.	8B\	.	4D#\	nim	.	4B\	nim	.	4f#/	nim	.	4a/	nim	.
.	.	8ff#\ 8aa	.	8D#\J)	.	.	.	.	.	.	.	.	.	.	.	.	.
=19	=19	=19	=19	=19	=19	=19	=19	=19	=19	=19	=19	=19	=19	=19	=19	=19	=19
4ryy	2E\	8ee\L 8gg#	.	(4.E\	.	2E\	ko-	.	2B\	ko-	.	2e/	ko-	.	2g#/	ko-	.
.	.	8b\J	.	.	.	.	.	.	.	.	.	.	.	.	.	.	.
4G#/	.	4.ee\	.	.	.	.	.	.	.	.	.	.	.	.	.	.	.
.	.	.	.	8G#\L	.	.	.	.	.	.	.	.	.	.	.	.	.
4B/	4ryy	.	.	8B\	.	4E\	-ło	.	4B\	-ło	.	4e/	-ło	.	4g#/	-ło	.
.	.	8ee\ 8gg#	.	8D\J)	.	.	.	.	.	.	.	.	.	.	.	.	.
=20	=20	=20	=20	=20	=20	=20	=20	=20	=20	=20	=20	=20	=20	=20	=20	=20	=20
4ryy	2D#X\	8ff#\L 8aa	.	(4.D#X\	.	2D#X\	czas	.	2B\	czas	.	2f#/	czas	.	2a/	czas	.
.	.	8b\J	.	.	.	.	.	.	.	.	.	.	.	.	.	.	.
4F#/	.	4.ff#\	.	.	.	.	.	.	.	.	.	.	.	.	.	.	.
.	.	.	.	8F#\L	.	.	.	.	.	.	.	.	.	.	.	.	.
4B/	4ryy	.	.	8B\	.	4D#\	za-	.	4B\	za-	.	4f#/	za-	.	4a/	za-	.
.	.	8ff#\ 8aa	.	8D#\J)	.	.	.	.	.	.	.	.	.	.	.	.	.
=21	=21	=21	=21	=21	=21	=21	=21	=21	=21	=21	=21	=21	=21	=21	=21	=21	=21
4ryy	2E\	8ee\L 8gg#	.	(4.E\	.	2E\	-trzy-	.	2B\	-trzy-	.	2e/	-trzy-	.	2g#/	-trzy-	.
.	.	8b\J	.	.	.	.	.	.	.	.	.	.	.	.	.	.	.
4G#/	.	4.ee\	.	.	.	.	.	.	.	.	.	.	.	.	.	.	.
.	.	.	.	8G#\L	.	.	.	.	.	.	.	.	.	.	.	.	.
4B/	4ryy	.	.	8B\	.	4E\	-ma	.	4B\	-ma	.	4e/	-ma	.	4g#/	-ma	.
.	.	8ee\ 8gg#	.	8E\J)	.	.	.	.	.	.	.	.	.	.	.	.	.
=22	=22	=22	=22	=22	=22	=22	=22	=22	=22	=22	=22	=22	=22	=22	=22	=22	=22
!!LO:PB:g=original
4ryy	2C#\	8ee\L 8aa	.	8C#\L	.	4C#/	pa-	.	4A\	pa-	.	4e/	pa-	.	4a/	pa-	.
.	.	(8ee\	.	8E\J	.	.	.	.	.	.	.	.	.	.	.	.	.
4E/	.	8cc#\	.	4.AA/	.	4AA/	-dną	.	4c#\	-dną	.	4e/	-dną	.	4e/	-dną	.
.	.	8ee\	.	.	.	.	.	.	.	.	.	.	.	.	.	.	.
4A/	4ryy	8cc#\)	.	.	.	4C#/	te	.	4A\	te	.	4e/	te	.	4a/	te	.
.	.	8a\J	.	8C#\	.	.	.	.	.	.	.	.	.	.	.	.	.
=23	=23	=23	=23	=23	=23	=23	=23	=23	=23	=23	=23	=23	=23	=23	=23	=23	=23
4ryy	2GG#\	8b\L	.	(<8GG#/L	.	4GG#/	Swia-	.	4e\	Swia-	.	4e/	Swia-	.	4b/	Swia-	.
.	.	8e\	.	8BB/J	.	.	.	.	.	.	.	.	.	.	.	.	.
4BB/	.	8ee\	.	4.E\	.	4E\	-ty	.	4B\	-ty	.	4e/	-ty	.	4e/	-ty	.
.	.	8e\	.	.	.	.	.	.	.	.	.	.	.	.	.	.	.
4E/	4ryy	8ee\	.	.	.	4GG#/	i	.	4e\	i	.	4e/	i	.	4b/	i	.
.	.	8dd\J	.	8GG#/)	.	.	.	.	.	.	.	.	.	.	.	.	.
=24	=24	=24	=24	=24	=24	=24	=24	=24	=24	=24	=24	=24	=24	=24	=24	=24	=24
4ryy	2AA\	8cc#\L	.	8AA/L	.	(2AA/	słoń-	.	2.e\	słoń-	.	2.a/	słoń-	.	2.cc#\	słoń-	.
.	.	8a\	.	8C#/J	.	.	.	.	.	.	.	.	.	.	.	.	.
4C#/	.	8ee\	.	4.E\	.	.	.	.	.	.	.	.	.	.	.	.	.
.	.	8cc#\	.	.	.	.	.	.	.	.	.	.	.	.	.	.	.
4A/	4C#\	8aa\	.	.	.	4C#/)	.	.	.	.	.	.	.	.	.	.	.
.	.	8ee\J	.	8A\	.	.	.	.	.	.	.	.	.	.	.	.	.
=25	=25	=25	=25	=25	=25	=25	=25	=25	=25	=25	=25	=25	=25	=25	=25	=25	=25
2.B/	2.E\	8g#\L 8b 8ee	.	8E\L	.	2E\	-ca	.	2e\	-ca	.	2g#/	-ca	.	2b\	-ca	.
.	.	8b\	.	8G#\J	.	.	.	.	.	.	.	.	.	.	.	.	.
.	.	8gg#\	.	4.B\	.	.	.	.	.	.	.	.	.	.	.	.	.
.	.	8ee\	.	.	.	.	.	.	.	.	.	.	.	.	.	.	.
.	.	8bb\	.	.	.	4r	.	.	4r	.	.	4r	.	.	4r	.	.
.	.	8gg#\J	.	8E\	.	.	.	.	.	.	.	.	.	.	.	.	.
=26	=26	=26	=26	=26	=26	=26	=26	=26	=26	=26	=26	=26	=26	=26	=26	=26	=26
4ryy	2D#X\	8ff#\L 8aa	.	4.D#X\	.	2D#X\	Je-	.	2B\	Je-	.	2f#/	Je-	.	2a\	Je-	.
.	.	8b\J	.	.	.	.	.	.	.	.	.	.	.	.	.	.	.
4F#/	.	4.ff#\	.	.	.	.	.	.	.	.	.	.	.	.	.	.	.
.	.	.	.	8F#\L	.	.	.	.	.	.	.	.	.	.	.	.	.
4B/	4ryy	.	.	8B\	.	4D#\	-mu	.	4B\	-mu	.	4f#/	-mu	.	4a\	-mu	.
.	.	8ff#\ 8aa	.	8D#\J	.	.	.	.	.	.	.	.	.	.	.	.	.
=27	=27	=27	=27	=27	=27	=27	=27	=27	=27	=27	=27	=27	=27	=27	=27	=27	=27
4ryy	2E\	8ee\L 8gg#	.	4.E\	.	2E\	tyl-	.	2B\	tyl-	.	2e/	tyl-	.	2g#/	tyl-	.
.	.	8b\J	.	.	.	.	.	.	.	.	.	.	.	.	.	.	.
4G#/	.	4.ee\	.	.	.	.	.	.	.	.	.	.	.	.	.	.	.
.	.	.	.	8G#\L	.	.	.	.	.	.	.	.	.	.	.	.	.
4B/	4ryy	.	.	8B\	.	4E\	-ko	.	4B\	-ko	.	4e/	-ko	.	4g#/	-ko	.
.	.	8ee\ 8gg#	.	8E\J	.	.	.	.	.	.	.	.	.	.	.	.	.
=28	=28	=28	=28	=28	=28	=28	=28	=28	=28	=28	=28	=28	=28	=28	=28	=28	=28
!	!	!	!	!LO:SIC:s=4.D#:v	!	!	!	!	!	!	!	!	!	!	!	!	!
4ryy	2D#X\	8ff#\L 8aa	.	4.D\	.	2D#X\	gra-	.	2B\	gra-	.	2f#/	gra-	.	2a/	gra-	.
.	.	8b\J	.	.	.	.	.	.	.	.	.	.	.	.	.	.	.
4F#/	.	4.ff#\	.	.	.	.	.	.	.	.	.	.	.	.	.	.	.
.	.	.	.	8F#\L	.	.	.	.	.	.	.	.	.	.	.	.	.
4B/	4ryy	.	.	8B\	.	4D#\	-nic	.	4B\	-nic	.	4f#/	-nic	.	4a/	-nic	.
!	!	!	!	!LO:SIC:s=8D#:v	!	!	!	!	!	!	!	!	!	!	!	!	!
.	.	8ff#\ 8aa	.	8D\J	.	.	.	.	.	.	.	.	.	.	.	.	.
=29	=29	=29	=29	=29	=29	=29	=29	=29	=29	=29	=29	=29	=29	=29	=29	=29	=29
4ryy	2E\	8ee\L 8gg#	.	4.E\	.	2E\	nie-	.	2B\	nie-	.	2e/	nie-	.	2g#/	nie-	.
.	.	8b\J	.	.	.	.	.	.	.	.	.	.	.	.	.	.	.
4G#/	.	4.ee\	.	.	.	.	.	.	.	.	.	.	.	.	.	.	.
.	.	.	.	8G#\L	.	.	.	.	.	.	.	.	.	.	.	.	.
4B/	4ryy	.	.	8B\	.	4E\	-ma	.	4B\	-ma	.	4e/	-ma	.	4g#/	-ma	.
.	.	8ee\ 8gg#	.	8E\J	.	.	.	.	.	.	.	.	.	.	.	.	.
=30	=30	=30	=30	=30	=30	=30	=30	=30	=30	=30	=30	=30	=30	=30	=30	=30	=30
4ryy	2C#\	8ee\L 8aa	.	8C#\L	.	4C#/	Je-	.	4A\	Je-	.	4e/	Je-	.	4a/	Je-	.
.	.	8ee\	.	8E\J	.	.	.	.	.	.	.	.	.	.	.	.	.
4E/	.	8cc#\	.	4.AA\	.	4AA/	-go	.	4c#\	-go	.	4e/	-go	.	4e/	-go	.
.	.	8ee\	.	.	.	.	.	.	.	.	.	.	.	.	.	.	.
4A/	4ryy	8cc#\	.	.	.	4C#/	iest	.	4A\	iest	.	4e/	iest	.	4a/	iest	.
.	.	8a\J	.	8C#\	.	.	.	.	.	.	.	.	.	.	.	.	.
=31	=31	=31	=31	=31	=31	=31	=31	=31	=31	=31	=31	=31	=31	=31	=31	=31	=31
4ryy	2GG#\	8b\L	.	8GG#/L	.	4GG#/	wiecz-	.	4e\	wiecz-	.	4e/	wiecz-	.	4b/	wiecz-	.
.	.	8e\	.	8BB/J	.	.	.	.	.	.	.	.	.	.	.	.	.
4BB/	.	8ee\	.	4.E\	.	4E\	-ność	.	4B\	-ność	.	4e/	-ność	.	4e/	-ność	.
.	.	8e\	.	.	.	.	.	.	.	.	.	.	.	.	.	.	.
4E/	4ryy	8ee\	.	.	.	4GG#/	bez	.	4e\	bez	.	4e/	bez	.	4b/	bez	.
.	.	8dd\J	.	8GG#/	.	.	.	.	.	.	.	.	.	.	.	.	.
=32	=32	=32	=32	=32	=32	=32	=32	=32	=32	=32	=32	=32	=32	=32	=32	=32	=32
!!LO:LB:g=original
4ryy	2AA\	8cc#\L	.	8AA\L	.	(2AA/	koń-	.	2.e\	koń-	.	2.a/	koń-	.	2.cc#\	koń-	.
.	.	8a\	.	8C#\J	.	.	.	.	.	.	.	.	.	.	.	.	.
4C#/	.	8ee\	.	4.E\	.	.	.	.	.	.	.	.	.	.	.	.	.
.	.	8cc#\	.	.	.	.	.	.	.	.	.	.	.	.	.	.	.
4C#/ 4A	4C#\	8aa\	.	.	.	4C#/)	.	.	.	.	.	.	.	.	.	.	.
.	.	8ee\J	.	8A\	.	.	.	.	.	.	.	.	.	.	.	.	.
*v	*v	*	*	*	*	*	*	*	*	*	*	*	*	*	*	*	*
=33	=33	=33	=33	=33	=33	=33	=33	=33	=33	=33	=33	=33	=33	=33	=33	=33
2.E\ 2.G# 2.B	(8g#\L 8b 8ee	.	8E\L	.	2E\	-ca	.	2e\	-ca	.	2g#/	-ca	.	2b\	-ca	.
.	8b\	.	8G#\J	.	.	.	.	.	.	.	.	.	.	.	.	.
.	8gg#\	.	4.B\	.	.	.	.	.	.	.	.	.	.	.	.	.
.	8ee\	.	.	.	.	.	.	.	.	.	.	.	.	.	.	.
.	8bb\	.	.	.	4E\	bez	.	4B\	bez	.	4g#/	bez	.	4ee\	bez	.
.	8gg#\J	.	8EE/	.	.	.	.	.	.	.	.	.	.	.	.	.
=34	=34	=34	=34	=34	=34	=34	=34	=34	=34	=34	=34	=34	=34	=34	=34	=34
*^	*	*	*	*	*	*	*	*	*	*	*	*	*	*	*	*
2.F#/ 2.A 2.B	2.E\	8bb\L)	.	2.EE/	.	2.E\	koń-	.	2.A\ 2.B	koń-	.	2.f#/ 2.a	koń-	.	2.dd#X\	koń-	.
.	.	8aa\	.	.	.	.	.	.	.	.	.	.	.	.	.	.	.
.	.	8bb\	.	.	.	.	.	.	.	.	.	.	.	.	.	.	.
.	.	8ff#\	.	.	.	.	.	.	.	.	.	.	.	.	.	.	.
.	.	8bb\	.	.	.	.	.	.	.	.	.	.	.	.	.	.	.
.	.	8dd#X\J	.	.	.	.	.	.	.	.	.	.	.	.	.	.	.
=35	=35	=35	=35	=35	=35	=35	=35	=35	=35	=35	=35	=35	=35	=35	=35	=35	=35
2G#/ [2B	2E\	8bb\L	.	2.EE/	.	2E\	-ca	.	2G#\ 2B	-ca	.	2g#/	-ca	.	2ee\	-ca	.
.	.	8gg#\	.	.	.	.	.	.	.	.	.	.	.	.	.	.	.
.	.	8bb\	.	.	.	.	.	.	.	.	.	.	.	.	.	.	.
.	.	8ee\	.	.	.	.	.	.	.	.	.	.	.	.	.	.	.
4F#/ 4A 4B]	4E\	8bb\	.	.	.	4r	.	.	4r	.	.	4r	.	.	4r	.	.
.	.	8dd#X\J	.	.	.	.	.	.	.	.	.	.	.	.	.	.	.
=36	=36	=36	=36	=36	=36	=36	=36	=36	=36	=36	=36	=36	=36	=36	=36	=36	=36
!	!	!	!LO:HP:a	!	!LO:HP:a	!	!	!	!	!	!	!	!	!	!	!	!
(2.G#/ 2.B	2.E\	8ee\L	<	2.EE/	<[	2.r	.	.	2.r	.	.	2.r	.	.	2.r	.	.
.	.	(8b\	.	.	.	.	.	.	.	.	.	.	.	.	.	.	.
.	.	8gg#\	.	.	.	.	.	.	.	.	.	.	.	.	.	.	.
.	.	8ee\	.	.	.	.	.	.	.	.	.	.	.	.	.	.	.
.	.	8ddn\	.	.	.	.	.	.	.	.	.	.	.	.	.	.	.
.	.	8ee\J)	.	.	.	.	.	.	.	.	.	.	.	.	.	.	.
.	.	.	[[ ff	.	.	.	.	.	.	.	.	.	.	.	.	.	.
*v	*v	*	*	*	*	*	*	*	*	*	*	*	*	*	*	*	*
=37	=37	=37	=37	=37	=37	=37	=37	=37	=37	=37	=37	=37	=37	=37	=37	=37
!	!	!	!	!LO:DY:b:rj:problem:z boku, na pięciolinii	!	!	!LO:DY:b:rj:problem:z boku, na pięciolinii	!	!	!LO:DY:b:rj:problem:z boku, na pięciolinii	!	!	!LO:DY:b:rj:problem:z boku, na pięciolinii	!	!	!LO:DY:b:rj
4AA/)	16cc#\LL	.	8AA/L	ff	2A\	Je-	ff	2e\	Je-	ff	2a/	Je-	ff	2cc#\	Je-	ff
.	16b\	.	.	.	.	.	.	.	.	.	.	.	.	.	.	.
.	16a\	.	8C#/	.	.	.	.	.	.	.	.	.	.	.	.	.
.	16b\JJ	.	.	.	.	.	.	.	.	.	.	.	.	.	.	.
2A\ 2c# 2e	16cc#\LL	.	8E/	.	.	.	.	.	.	.	.	.	.	.	.	.
.	16b\	.	.	.	.	.	.	.	.	.	.	.	.	.	.	.
.	16cc#\	.	8C#/	.	.	.	.	.	.	.	.	.	.	.	.	.
.	16dd\JJ	.	.	.	.	.	.	.	.	.	.	.	.	.	.	.
.	16ee\LL	.	8AA/	.	4A\	-mu	.	4c#\	-mu	.	4a/	-mu	.	4ee\	-mu	.
.	16a\	.	.	.	.	.	.	.	.	.	.	.	.	.	.	.
.	16cc#\	.	8A/J	.	.	.	.	.	.	.	.	.	.	.	.	.
.	16ee\JJ	.	.	.	.	.	.	.	.	.	.	.	.	.	.	.
=38	=38	=38	=38	=38	=38	=38	=38	=38	=38	=38	=38	=38	=38	=38	=38	=38
4D\	16ff#\LL	.	8D\L	.	2D\	słoń-	.	2d\	słoń-	.	2a/	słoń-	.	2ff#\	słoń-	.
.	16ee\	.	.	.	.	.	.	.	.	.	.	.	.	.	.	.
.	16dd\	.	8F#\	.	.	.	.	.	.	.	.	.	.	.	.	.
.	16cc#\JJ	.	.	.	.	.	.	.	.	.	.	.	.	.	.	.
2A\ 2d 2f#	16dd\LL	.	8A\	.	.	.	.	.	.	.	.	.	.	.	.	.
.	16ee\	.	.	.	.	.	.	.	.	.	.	.	.	.	.	.
.	16ff#\	.	8F#\	.	.	.	.	.	.	.	.	.	.	.	.	.
.	16gg#\JJ	.	.	.	.	.	.	.	.	.	.	.	.	.	.	.
.	16aa\LL	.	8D\	.	4D\	-ce	.	4d\	-ce	.	4a/	-ce	.	4ff#\	-ce	.
.	16gg#\	.	.	.	.	.	.	.	.	.	.	.	.	.	.	.
.	16aa\	.	8d\J	.	.	.	.	.	.	.	.	.	.	.	.	.
.	16ff#\JJ	.	.	.	.	.	.	.	.	.	.	.	.	.	.	.
=39	=39	=39	=39	=39	=39	=39	=39	=39	=39	=39	=39	=39	=39	=39	=39	=39
*^	*	*	*	*	*	*	*	*	*	*	*	*	*	*	*	*
2A/ 2c#	2E\	16ee\LL	.	8E\L	.	2E\	w hoł-	.	2c#\	w hoł-	.	4a/	w hoł-	.	2ee\	w hoł-	.
.	.	16ff#\	.	.	.	.	.	.	.	.	.	.	.	.	.	.	.
.	.	16ee\	.	8c#\	.	.	.	.	.	.	.	.	.	.	.	.	.
.	.	16cc#\JJ	.	.	.	.	.	.	.	.	.	.	.	.	.	.	.
.	.	16ee\LL	.	8A\	.	.	.	.	.	.	.	4e/	.	.	.	.	.
.	.	16ff#\	.	.	.	.	.	.	.	.	.	.	.	.	.	.	.
.	.	16ee\	.	8e\	.	.	.	.	.	.	.	.	.	.	.	.	.
.	.	16cc#\JJ	.	.	.	.	.	.	.	.	.	.	.	.	.	.	.
4G#/ 4B 4d	4E\	16dd\LL	.	8G#\	.	4E\	-dzie	.	4B\	-dzie	.	4g#/	-dzie	.	4dd\	-dzie	.
.	.	16ee\	.	.	.	.	.	.	.	.	.	.	.	.	.	.	.
.	.	16dd\	.	8e\J	.	.	.	.	.	.	.	.	.	.	.	.	.
.	.	16b\JJ	.	.	.	.	.	.	.	.	.	.	.	.	.	.	.
*v	*v	*	*	*	*	*	*	*	*	*	*	*	*	*	*	*	*
=40	=40	=40	=40	=40	=40	=40	=40	=40	=40	=40	=40	=40	=40	=40	=40	=40
4E\ 4A 4c#	16cc#\LL	.	8A\L	.	8AA/L	swie-	.	4e\	świe-	.	4a/	świe-	.	4cc#\	świe-	.
.	16dd\	.	.	.	.	.	.	.	.	.	.	.	.	.	.	.
.	16cc#\	.	8c#\J	.	8C#/J	.	.	.	.	.	.	.	.	.	.	.
.	16a\JJ	.	.	.	.	.	.	.	.	.	.	.	.	.	.	.
4E\ 4G# 4B	16b\LL	.	4e\	.	4E\	-ći	.	4e\	-ći	.	4g#/	-ći	.	4b\	-ći	.
.	16cc#\	.	.	.	.	.	.	.	.	.	.	.	.	.	.	.
.	16b\	.	.	.	.	.	.	.	.	.	.	.	.	.	.	.
.	16g#\JJ	.	.	.	.	.	.	.	.	.	.	.	.	.	.	.
4r	16e/LL	.	4r	.	4r	.	.	4r	.	.	4r	.	.	4r	.	.
.	16g#/	.	.	.	.	.	.	.	.	.	.	.	.	.	.	.
.	16b/	.	.	.	.	.	.	.	.	.	.	.	.	.	.	.
.	16dd/JJ	.	.	.	.	.	.	.	.	.	.	.	.	.	.	.
=41	=41	=41	=41	=41	=41	=41	=41	=41	=41	=41	=41	=41	=41	=41	=41	=41
!!LO:PB:g=original
8A\	8r	p	2.r	.	4A\	wia-	.	4c#\	wia-	.	4e/	wia-	.	4cc#\	wia-	.
8r	8e/ 8a 8cc#	.	.	.	.	.	.	.	.	.	.	.	.	.	.	.
8G#\	8r	.	.	.	4G#\	-try	.	4e\	-try	.	4e/	-try	.	4b\	-try	.
8r	8e/ 8b	.	.	.	.	.	.	.	.	.	.	.	.	.	.	.
8A\	8r	.	.	.	4A\	wy-	.	4e\	wy-	.	4a/	wy-	.	4cc#\	wy-	.
8r	8e/ 8a 8cc#	.	.	.	.	.	.	.	.	.	.	.	.	.	.	.
=42	=42	=42	=42	=42	=42	=42	=42	=42	=42	=42	=42	=42	=42	=42	=42	=42
8F#\	8r	.	4r	.	4F#\	-ro-	.	4d\	-ro-	.	4a/	-ro-	.	4dd\	-ro-	.
8r	8d/ 8a 8dd	.	.	.	.	.	.	.	.	.	.	.	.	.	.	.
8D\	8r	.	4r	.	4D\	-ki	.	4d\	-ki	.	8a/L	-ki	.	4f#/	-ki	.
8r	8d/ 8f#	.	.	.	.	.	.	.	.	.	8g#/J	.	.	.	.	.
8D\	8r	.	4D\	.	4D\	roz-	.	8A\L	roz-	.	4f#/	roz-	.	4b/	roz-	.
8r	8d/ 8f# 8b	.	.	.	.	.	.	8B\J	.	.	.	.	.	.	.	.
=43	=43	=43	=43	=43	=43	=43	=43	=43	=43	=43	=43	=43	=43	=43	=43	=43
2E\	4r	.	2E\	.	(2E\	-no-	.	(2c#\	-no-	.	(2e/	-no-	.	(2a/	-no-	.
.	4c#/ 4e 4a	.	.	.	.	.	.	.	.	.	.	.	.	.	.	.
4D\	4f#/ 4b	.	4D\	.	4D\)	.	.	4F#/)	.	.	4f#/)	.	.	4b/)	.	.
=44	=44	=44	=44	=44	=44	=44	=44	=44	=44	=44	=44	=44	=44	=44	=44	=44
*	*^	*	*	*	*	*	*	*	*	*	*	*	*	*	*	*
!	!	!	!LO:HP:a	!	!	!	!	!	!	!	!	!	!	!	!	!	!
2C#/	2g#/ 2cc#	2e#X/	<	2C#/	.	2C#/	-szą	.	2G#/	-szą	.	2e#X/	-szą	.	2cc#\	-szą	.
4BB/	16g#/LL 16dd	4en\	.	4BB/	.	4r	.	.	4r	.	.	4r	.	.	4r	.	.
.	16cc#/	.	.	.	.	.	.	.	.	.	.	.	.	.	.	.	.
.	16b/	.	.	.	.	.	.	.	.	.	.	.	.	.	.	.	.
.	16ee/JJ	.	[	.	.	.	.	.	.	.	.	.	.	.	.	.	.
*	*v	*v	*	*	*	*	*	*	*	*	*	*	*	*	*	*	*
=45	=45	=45	=45	=45	=45	=45	=45	=45	=45	=45	=45	=45	=45	=45	=45	=45
4AA/	16cc#\LL	.	8AA/L	.	2A\	lu-	.	2e\	lu-	.	2a/	lu-	.	2cc#\	lu-	.
.	16b\	.	.	.	.	.	.	.	.	.	.	.	.	.	.	.
.	16a\	.	8C#/	.	.	.	.	.	.	.	.	.	.	.	.	.
.	16b\JJ	.	.	.	.	.	.	.	.	.	.	.	.	.	.	.
2A\ 2c# 2e	16cc#\LL	.	8E/	.	.	.	.	.	.	.	.	.	.	.	.	.
.	16b\	.	.	.	.	.	.	.	.	.	.	.	.	.	.	.
.	16cc#\	.	8C#/J	.	.	.	.	.	.	.	.	.	.	.	.	.
.	16dd\JJ	.	.	.	.	.	.	.	.	.	.	.	.	.	.	.
.	16ee\LL	.	8AA\L	.	4A\	-dy	.	4c#\	-dy	.	4a/	-dy	.	4ee\	-dy	.
.	16a\	.	.	.	.	.	.	.	.	.	.	.	.	.	.	.
.	16cc#\	.	8A\J	.	.	.	.	.	.	.	.	.	.	.	.	.
.	16ee\JJ	.	.	.	.	.	.	.	.	.	.	.	.	.	.	.
=46	=46	=46	=46	=46	=46	=46	=46	=46	=46	=46	=46	=46	=46	=46	=46	=46
4D\	16ff#\LL	.	8D\L	.	2D\	ziem-	.	2d\	ziem-	.	2a/	ziem-	.	2ff#\	ziem-	.
.	16ee\	.	.	.	.	.	.	.	.	.	.	.	.	.	.	.
.	16dd\	.	8F#\	.	.	.	.	.	.	.	.	.	.	.	.	.
.	16cc#\JJ	.	.	.	.	.	.	.	.	.	.	.	.	.	.	.
2A\ 2d 2f#	16dd\LL	.	8A\	.	.	.	.	.	.	.	.	.	.	.	.	.
.	16ee\	.	.	.	.	.	.	.	.	.	.	.	.	.	.	.
.	16ff#\	.	8F#\	.	.	.	.	.	.	.	.	.	.	.	.	.
.	16gg#\JJ	.	.	.	.	.	.	.	.	.	.	.	.	.	.	.
.	16aa\LL	.	8D\	.	4D\	-skie	.	4d\	-skie	.	4a/	-skie	.	4ff#\	-skie	.
.	16gg#\	.	.	.	.	.	.	.	.	.	.	.	.	.	.	.
.	16aa\	.	8d\J	.	.	.	.	.	.	.	.	.	.	.	.	.
.	16ff#\JJ	.	.	.	.	.	.	.	.	.	.	.	.	.	.	.
=47	=47	=47	=47	=47	=47	=47	=47	=47	=47	=47	=47	=47	=47	=47	=47	=47
2E\ 2A 2c#	16ee\LL	.	8E\L	.	2E\	Je-	.	2c#\	Je-	.	(4a/	Je-	.	2ee\	Je-	.
.	16ff#\	.	.	.	.	.	.	.	.	.	.	.	.	.	.	.
.	16ee\	.	8c#\	.	.	.	.	.	.	.	.	.	.	.	.	.
.	16cc#\JJ	.	.	.	.	.	.	.	.	.	.	.	.	.	.	.
.	16ee\LL	.	8A\	.	.	.	.	.	.	.	4e/)	.	.	.	.	.
.	16ff#\	.	.	.	.	.	.	.	.	.	.	.	.	.	.	.
.	16ee\	.	8e\	.	.	.	.	.	.	.	.	.	.	.	.	.
.	16cc#\JJ	.	.	.	.	.	.	.	.	.	.	.	.	.	.	.
4E\ 4G# 4B 4d	16dd\LL	.	8G#\	.	4E\	-go	.	4B\	-go	.	4g#/	-go	.	4dd\	-go	.
.	16ee\	.	.	.	.	.	.	.	.	.	.	.	.	.	.	.
.	16dd\	.	8e\J	.	.	.	.	.	.	.	.	.	.	.	.	.
.	16b\JJ	.	.	.	.	.	.	.	.	.	.	.	.	.	.	.
=48	=48	=48	=48	=48	=48	=48	=48	=48	=48	=48	=48	=48	=48	=48	=48	=48
4E\ 4A 4c#	16cc#\LL	.	8A\L	.	8AA/L	dzie-	.	4e\	dzie-	.	4a/	dzie-	.	4cc#\	dzie-	.
.	16dd\	.	.	.	.	.	.	.	.	.	.	.	.	.	.	.
.	16cc#\	.	8c#\J	.	8C#/J	.	.	.	.	.	.	.	.	.	.	.
.	16a\JJ	.	.	.	.	.	.	.	.	.	.	.	.	.	.	.
4E\ 4G# 4B	16b\LL	.	4e\	.	4E/	-ci	.	4e\	-ci	.	4g#/	-ci	.	4b\	-ci	.
.	16cc#\	.	.	.	.	.	.	.	.	.	.	.	.	.	.	.
.	16b\	.	.	.	.	.	.	.	.	.	.	.	.	.	.	.
.	16g#\JJ	.	.	.	.	.	.	.	.	.	.	.	.	.	.	.
4r	16e\LL	.	4r	.	4r	.	.	4r	.	.	4r	.	.	4r	.	.
.	16g#\	.	.	.	.	.	.	.	.	.	.	.	.	.	.	.
.	16b\	.	.	.	.	.	.	.	.	.	.	.	.	.	.	.
.	16dd\JJ	.	.	.	.	.	.	.	.	.	.	.	.	.	.	.
=49	=49	=49	=49	=49	=49	=49	=49	=49	=49	=49	=49	=49	=49	=49	=49	=49
!	!	!	!	!	!	!	!LO:DY:b:rj:problem:z boku, na pięciolinii	!	!	!LO:DY:b:rj:problem:z boku, na pięciolinii	!	!	!LO:DY:b:rj:problem:z boku, na pięciolinii	!	!	!LO:DY:b:rj:problem:z boku, na pięciolinii
8A\	8r	p	4A\	.	4A\	Cno-	p	4c#\	Cno-	p	4e/	Cno-	p	4cc#\	Cno-	p
8r	8e\ 8a 8cc#	.	.	.	.	.	.	.	.	.	.	.	.	.	.	.
8G#\	8r	.	4G#\	.	4G#\	-tą	.	4e\	-tą	.	4e/	-tą	.	4b\	-tą	.
8r	8e\ 8b	.	.	.	.	.	.	.	.	.	.	.	.	.	.	.
8A\	8r	.	4A\	.	4A\	ku	.	4e\	ku	.	4a/	ku	.	4cc#\	ku	.
8r	8e\ 8a 8cc#	.	.	.	.	.	.	.	.	.	.	.	.	.	.	.
=50	=50	=50	=50	=50	=50	=50	=50	=50	=50	=50	=50	=50	=50	=50	=50	=50
!!LO:LB:g=original
8F#\	8r	.	8F#\L	.	8F#\L	nie-	.	4d\	nie-	.	4a/	nie-	.	4dd\	nie-	.
8r	8d/ 8a 8dd	.	8E\J	.	8E\J	.	.	.	.	.	.	.	.	.	.	.
8D\	8r	.	2D\	.	4D\	-mu	.	4d\	-mu	.	8a/L	-mu	.	4f#/	-mu	.
8r	8d/ 8f#	.	.	.	.	.	.	.	.	.	8g#/J	.	.	.	.	.
8D\	8r	.	.	.	4D\	się	.	4d\	się	.	4f#/	się	.	8cc#\L	się	.
!	!	!LO:HP:a	!	!	!	!	!	!	!	!	!	!	!	!	!	!
8r	8d/ 8f# 8b	<	.	.	.	.	.	.	.	.	.	.	.	8b\J	.	.
=51	=51	=51	=51	=51	=51	=51	=51	=51	=51	=51	=51	=51	=51	=51	=51	=51
2.EE/ 2.E	4r	.	2.E\	.	2E\	wzno-	.	2c#\	wzno-	.	2e/	wzno-	.	2a/	wzno-	.
.	4c#/ 4e 4a	.	.	.	.	.	.	.	.	.	.	.	.	.	.	.
.	4B/ 4d 4e 4g#	.	.	.	4E\	-szą	.	4B\	-szą	.	4e/	-szą	.	4g#/	-szą	.
=52	=52	=52	=52	=52	=52	=52	=52	=52	=52	=52	=52	=52	=52	=52	=52	=52
!	!	!	!	!LO:HP:a	!	!	!	!	!	!	!	!	!	!	!	!
2.AAA/ 2.AA	2.A/ 2.e 2.a	[ ff	2.C#/	<	4A\	Cno-	.	4A\	Cno-	.	4a/	Cno-	.	4a/	Cno-	.
.	.	.	.	.	4E\	-tą	.	4E/	-tą	.	4e/	-tą	.	4e/	-tą	.
.	.	.	.	.	4A\	ku	.	4A/	ku	.	4a/	ku	.	4a/	ku	.
=53	=53	=53	=53	=53	=53	=53	=53	=53	=53	=53	=53	=53	=53	=53	=53	=53
2.GGG#/ 2.GG#	2.B/ 2.e 2.b	.	2.GG#/	.	4B\	nie-	.	4B\	nie-	.	4b/	nie-	.	4b\	nie-	.
.	.	.	.	.	4E\	-mu	.	4E/	-mu	.	4e/	-mu	.	4e/	-mu	.
.	.	.	.	.	4B\	się	.	4B\	się	.	4b/	się	.	4b/	się	.
=54	=54	=54	=54	=54	=54	=54	=54	=54	=54	=54	=54	=54	=54	=54	=54	=54
2AAA/ 2AA	2c#/ 2e 2a 2cc#	.	2AA/	[	(2c#\	wzno-	.	(2c#\	wzno-	.	(2cc#\	wzno-	.	(2cc#\	wzno-	.
4FFn/ 4Fn	4d/ 4a 4dd	.	4FFn/	.	4d\)	.	.	4d\)	.	.	4dd\)	.	.	4dd\)	.	.
=55	=55	=55	=55	=55	=55	=55	=55	=55	=55	=55	=55	=55	=55	=55	=55	=55
!LO:N:vis=2	!	!	!LO:N:vis=2	!	!LO:N:vis=2	!	!	!	!	!	!LO:N:vis=2	!	!	!LO:N:vis=2	!	!
2.EE;/ 2.E	2.g#;\ 2.b 2.dd	.	2.EE;/	.	2.d;\	-szą	.	2.d;\	-szą	.	2.dd;\	-szą	.	2.dd;\	-szą	.
=56	=56	=56	=56	=56	=56	=56	=56	=56	=56	=56	=56	=56	=56	=56	=56	=56
*	*	*	*tremolo	*	*	*	*	*	*	*	*	*	*	*	*	*
!	!	!	!LO:N:vis=2:problem:nie wyświetla się półnuta bez kropki	!LO:DY:b:rj	!	!	!LO:DY:b:rj:problem:z boku, na pięciolinii	!	!	!LO:DY:b:rj:problem:z boku, na pięciolinii	!	!	!LO:DY:b:rj:problem:z boku, na pięciolinii	!	!	!LO:DY:b:rj:problem:z boku, na pięciolinii
2.EE#X/ 2.E#X	2.g#\ 2.b 2.dd	.	8EE#X/L	ff	2.E#X\	Cno-	ff	2.B\	Cno-	ff	2.g#/	Cno-	ff	2.dd\	Cno-	ff
.	.	.	8EE#/	.	.	.	.	.	.	.	.	.	.	.	.	.
.	.	.	8EE#/	.	.	.	.	.	.	.	.	.	.	.	.	.
.	.	.	8EE#/	.	.	.	.	.	.	.	.	.	.	.	.	.
.	.	.	8EE#/	.	.	.	.	.	.	.	.	.	.	.	.	.
.	.	.	8EE#/J	.	.	.	.	.	.	.	.	.	.	.	.	.
=57	=57	=57	=57	=57	=57	=57	=57	=57	=57	=57	=57	=57	=57	=57	=57	=57
2FF#/ 2F#	2a\ 2cc#	.	8FF#/L	.	2F#\	-tą	.	2A\	-tą	.	2a/	-tą	.	2cc#\	-tą	.
.	.	.	8FF#/	.	.	.	.	.	.	.	.	.	.	.	.	.
.	.	.	8FF#/	.	.	.	.	.	.	.	.	.	.	.	.	.
.	.	.	8FF#/J	.	.	.	.	.	.	.	.	.	.	.	.	.
*	*	*	*Xtremolo	*	*	*	*	*	*	*	*	*	*	*	*	*
4DD/ 4D	4a\ 4dd 4ff#	.	8D\L	.	4D\	ku	.	4A\	ku	.	4a/	ku	.	4ff#\	ku	.
.	.	.	8D\J	.	.	.	.	.	.	.	.	.	.	.	.	.
=58	=58	=58	=58	=58	=58	=58	=58	=58	=58	=58	=58	=58	=58	=58	=58	=58
4CC#/ 4C#	4a\ 4ee	.	8C#\L	.	4C#\	nie-	.	4A\	nie-	.	4a/	nie-	.	4ee\	nie-	.
.	.	.	8C#\	.	.	.	.	.	.	.	.	.	.	.	.	.
4FF#/ 4F#	4c#/ 4f# 4a	.	8F#\	.	4F#\	-mu	.	4c#\	-mu	.	4a/	-mu	.	4a/	-mu	.
.	.	.	8F#\	.	.	.	.	.	.	.	.	.	.	.	.	.
4DD/ 4D	4f#\ 4b 4dd	.	8D\	.	4D\	się	.	4A\	się	.	4f#/	się	.	4dd\	się	.
.	.	.	8D\J	.	.	.	.	.	.	.	.	.	.	.	.	.
=59	=59	=59	=59	=59	=59	=59	=59	=59	=59	=59	=59	=59	=59	=59	=59	=59
*	*	*	*tremolo	*	*	*	*	*	*	*	*	*	*	*	*	*
!	!	!	!LO:N:vis=2:problem:nie wyświetla się półnuta bez kropki	!	!	!	!	!	!	!	!	!	!	!	!	!
4EE/ 4E	16e/LL 16a 16cc#	.	8E\L	.	[2.E\	wzno-	.	(2.c#\	wzno-	.	(2.e/	wzno-	.	(2.cc#\	wzno-	.
.	16dd/	.	.	.	.	.	.	.	.	.	.	.	.	.	.	.
.	16cc#/	.	8E\	.	.	.	.	.	.	.	.	.	.	.	.	.
.	16b/JJ	.	.	.	.	.	.	.	.	.	.	.	.	.	.	.
2E\ 2A 2c#	16a\LL	.	8E\	.	.	.	.	.	.	.	.	.	.	.	.	.
.	16b\	.	.	.	.	.	.	.	.	.	.	.	.	.	.	.
.	16cc#\	.	8E\	.	.	.	.	.	.	.	.	.	.	.	.	.
.	16dd\JJ	.	.	.	.	.	.	.	.	.	.	.	.	.	.	.
.	16ee\LL	.	8E\	.	.	.	.	.	.	.	.	.	.	.	.	.
.	16cc#\	.	.	.	.	.	.	.	.	.	.	.	.	.	.	.
.	16ee\	.	8E\J	.	.	.	.	.	.	.	.	.	.	.	.	.
.	16aa\JJ	.	.	.	.	.	.	.	.	.	.	.	.	.	.	.
=60	=60	=60	=60	=60	=60	=60	=60	=60	=60	=60	=60	=60	=60	=60	=60	=60
!	!	!	!LO:N:vis=2:problem:nie wyświetla się półnuta bez kropki	!	!	!	!	!	!	!	!	!	!	!	!	!
2.E\ (>2.B 2.d	16gg#\LL	.	8EE/L	.	2.E\]	.	.	2.d\)	.	.	2.g#/)	.	.	2.b\)	.	.
.	16aa\	.	.	.	.	.	.	.	.	.	.	.	.	.	.	.
.	16bb\	.	8EE/	.	.	.	.	.	.	.	.	.	.	.	.	.
.	16aa\JJ	.	.	.	.	.	.	.	.	.	.	.	.	.	.	.
.	16gg#\LL	.	8EE/	.	.	.	.	.	.	.	.	.	.	.	.	.
.	16ff#\	.	.	.	.	.	.	.	.	.	.	.	.	.	.	.
.	16ee\	.	8EE/	.	.	.	.	.	.	.	.	.	.	.	.	.
.	16ff#\JJ	.	.	.	.	.	.	.	.	.	.	.	.	.	.	.
.	16gg#\LL	.	8EE/	.	.	.	.	.	.	.	.	.	.	.	.	.
.	16ee\	.	.	.	.	.	.	.	.	.	.	.	.	.	.	.
.	16ff#\	.	8EE/J	.	.	.	.	.	.	.	.	.	.	.	.	.
.	16gg#\JJ	.	.	.	.	.	.	.	.	.	.	.	.	.	.	.
=61	=61	=61	=61	=61	=61	=61	=61	=61	=61	=61	=61	=61	=61	=61	=61	=61
*tremolo	*	*	*	*	*	*	*	*	*	*	*	*	*	*	*	*
8A\L) 8c#	8aa\L	.	4.AA/	.	2AA\ 2A	-szą.	.	2c#\	-szą.	.	2a/	-szą.	.	2a/	-szą.	.
8e\	8ee\J	.	.	.	.	.	.	.	.	.	.	.	.	.	.	.
8A\ 8c#	4.aa\	.	.	.	.	.	.	.	.	.	.	.	.	.	.	.
8e\	.	.	8C#/L	.	.	.	.	.	.	.	.	.	.	.	.	.
8A\ 8c#	.	.	8E/	.	4r	.	.	4r	.	.	4r	.	.	4r	.	.
8e\J	8ccc#\	.	8AA/J	.	.	.	.	.	.	.	.	.	.	.	.	.
=62	=62	=62	=62	=62	=62	=62	=62	=62	=62	=62	=62	=62	=62	=62	=62	=62
!!LO:LB:g=original
8G#\L 8B 8d	(8bb\L	.	4.GG#/	.	2.r	.	.	2.r	.	.	2.r	.	.	2.r	.	.
8e\	8ee\J	.	.	.	.	.	.	.	.	.	.	.	.	.	.	.
8G#\ 8B 8d	4.bb\	.	.	.	.	.	.	.	.	.	.	.	.	.	.	.
8e\	.	.	8BB/L	.	.	.	.	.	.	.	.	.	.	.	.	.
8G#\ 8B 8d	.	.	8E/	.	.	.	.	.	.	.	.	.	.	.	.	.
8e\J	8ddd\)	.	8GG#/J	.	.	.	.	.	.	.	.	.	.	.	.	.
=63	=63	=63	=63	=63	=63	=63	=63	=63	=63	=63	=63	=63	=63	=63	=63	=63
8A\L 8c#	(8aa\L	.	4.AA/	.	2.r	.	.	2.r	.	.	2.r	.	.	2.r	.	.
8e\	8ee\J	.	.	.	.	.	.	.	.	.	.	.	.	.	.	.
8A\ 8c#	4.aa\	.	.	.	.	.	.	.	.	.	.	.	.	.	.	.
8e\	.	.	8C#/L	.	.	.	.	.	.	.	.	.	.	.	.	.
8A\ 8c#	.	.	8E/	.	.	.	.	.	.	.	.	.	.	.	.	.
8e\J	8ccc#\)	.	8AA/J	.	.	.	.	.	.	.	.	.	.	.	.	.
=64	=64	=64	=64	=64	=64	=64	=64	=64	=64	=64	=64	=64	=64	=64	=64	=64
8G#\L 8B 8d	8bb\L	.	4.GG#/	.	2.r	.	.	2.r	.	.	2.r	.	.	2.r	.	.
8e\	8ee\J	.	.	.	.	.	.	.	.	.	.	.	.	.	.	.
8G#\ 8B 8d	4.bb\	.	.	.	.	.	.	.	.	.	.	.	.	.	.	.
8e\	.	.	8BB/L	.	.	.	.	.	.	.	.	.	.	.	.	.
8G#\ 8B 8d	.	.	8E/	.	.	.	.	.	.	.	.	.	.	.	.	.
8e\J	8ddd\	.	8GG#/J	.	.	.	.	.	.	.	.	.	.	.	.	.
=65	=65	=65	=65	=65	=65	=65	=65	=65	=65	=65	=65	=65	=65	=65	=65	=65
!	!	!	!LO:TX:a:t=P:problem:mixed beam	!	!	!	!	!	!	!	!	!	!	!	!	!
4A\ 4c#	4ee\ 4aa 4ccc#	.	8AA/L	.	2.r	.	.	2.r	.	.	2.r	.	.	2.r	.	.
.	.	.	8A\J	.	.	.	.	.	.	.	.	.	.	.	.	.
4DD/ 4D	4dd\ 4ff# 4bb 4ddd	.	8DD/L	.	.	.	.	.	.	.	.	.	.	.	.	.
.	.	.	8D/J	.	.	.	.	.	.	.	.	.	.	.	.	.
4EE/ 4E	4dd\ 4ee 4gg# 4bb	.	8EE/L	.	.	.	.	.	.	.	.	.	.	.	.	.
.	.	.	8E/J	.	.	.	.	.	.	.	.	.	.	.	.	.
=66	=66	=66	=66	=66	=66	=66	=66	=66	=66	=66	=66	=66	=66	=66	=66	=66
2.AAA/ 2.AA	(2.dd\ 2.ee 2.gg# 2.bb	.	2.AA/	.	2.r	.	.	2.r	.	.	2.r	.	.	2.r	.	.
=67	=67	=67	=67	=67	=67	=67	=67	=67	=67	=67	=67	=67	=67	=67	=67	=67
2AAA/ 2AA	2cc#\) 2ee 2aa	.	2AA/	.	2.r	.	.	2.r	.	.	2.r	.	.	2.r	.	.
4r	4r	.	4r	.	.	.	.	.	.	.	.	.	.	.	.	.
==	==	==	==	==	==	==	==	==	==	==	==	==	==	==	==	==
*-	*-	*-	*-	*-	*-	*-	*-	*-	*-	*-	*-	*-	*-	*-	*-	*-
!!!system-decoration: [s1,s2,s3,s4,s5{(s6,s7)}]
!!!RDF**kern: > = above
!!!RDF**kern: < = below
!!!ENC: Andrzej Kubiczek
!!!END: 2020-03-03
!!!ENC: Marta Lawrence
!!!END: 2020-04-03
